X:1
T:Fado Lisbonense
T:Fado Lisbonense
T:in "Cantos Populares - 12 Fados para Piano"
T:Editor: Eduardo da Fonseca - Porto [ca. 1900]
%%score { 1 | 2 }
L:1/8
Q:1/4=45
M:2/4
K:C
V:1 treble nm="Piano" snm="Pno."
V:2 bass 
V:1
"^Lento" (G/A/B/) | cc- c/g/e/g/ | cc- c/g/e/g/ | c/g/e/g/ c/e/f/e/ |{/f} ed- d/(G/A/B/) | %5
 cc- c/g/e/g/ | cc- c/c/d/e/ | dd- d/(A/B/c/ | B)G- GG/B/ | dd/d/ d/g/^f/e/ | ^f2- f/e/d/c/ | %11
 (B/d/)(G/B/) (A/c/)(^F/A/) | GG G(B/c/) | dd/d/ d/g/^f/e/ | ^f2- f/e/d/c/ | %15
 (B/d/)(G/B/) (A/c/)(^F/A/) | G[Bdg] [Bdg]/!D.C.! |] %17
V:2
 z z/ | C,[E,G,C] [E,G,C][E,G,C] | C,[E,G,C] [E,G,C][E,G,C] | C,[E,G,C] C,[E,G,C] | %4
 G,,[D,G,B,] [D,G,B,][D,G,B,] | C,[E,G,C] [E,G,C][E,G,C] | C,[E,G,C] [E,G,C][E,G,C] | %7
 D,[^F,A,C] D,[F,A,C] | G,,[D,G,B,] [D,G,B,] z | G,,[D,G,B,] [D,G,B,][D,G,B,] | %10
 D,[^F,A,C] [F,A,C][F,A,C] | D,[G,B,] D,[^F,A,C] | G,,[D,G,B,] [D,G,B,] z | %13
 G,,[D,G,B,] [D,G,B,][D,G,B,] | D,[^F,A,C] [F,A,C][F,A,C] | D,[G,B,] D,[^F,A,C] | %16
 G,,!>![D,G,B,] !>![G,,G,]/ |] %17

